X: 3033
Q:"Strathspey."
M: C
L: 1/16
K: Bm
uB2 |\
c2 |\
d4- d2f2 ddd2 f3d |
c3BA3c edcB A2c2 |\
[1 d4- d2f2 ddd2 d4 | d3Bc3^A B4 B,2 :|\
[2 df3 df3 cA3 ec3 | d3Bc3^A B4 B,2 |]


